X:1
T:Title
%%score 1 { 2 | ( 3 4 ) } { 5 | ( 6 7 ) }
L:1/8
Q:1/4=110
M:4/4
K:Eb
V:1 treble nm="E.Piano 2, Unnamed-000"
V:2 bass nm="Drawbar Organ, Unnamed-001"
V:3 bass 
V:4 bass 
V:5 bass nm="Choir Pad, Staff-1"
V:6 bass 
V:7 bass 
V:1
 E2 [EG]2- [EG][E_G] [E=G]2 | [_DG]2 [=DA]2- [DA][DG] [DA]2 | [E=A]2 [EB]2 [Ge]2 [Gd]2 | %3
w: By~John~Baptiste~Calkin,~1872 * * * *|||
 [Ec]2 [Fc]2- [Fc][FB] [FB]2 | [EB]2 [EB]2- [EB][EA] [EG]2 | [B,A]2 [=B,G]2- [B,G][B,F] [CE]2 | %6
w: |||
 [EF]2 [EG]2 [EA]2 [EB]2 | [Ec]2 D2- D[DF] E2- | E6 z2 |] %9
w: |||
V:2
 G,2 B,4 B,2 | B,2 B,4 B,2 | B,2 B,2 B,2 B,2 | E2 D2- DD D2 | E2 C2- CC[K:bass] B,2 | %5
 E,2 G,2- G,G, G,2 | A,2 B,2 C2 B,2 | F,2 F,2- F,A, G,2- | G,6 z2 |] %9
V:3
 E,2 E,2 z B, E,2 | =E,2 F,2 z B, F,2 | _G,2 =G,2 B,,2 E,2 | G,2 A,2- A,A, A,2 | %4
 G,2 A,2- A,A, E,2 | z2 D,2- D,D, C,2 | F,2 B,,2 A,,2 G,,2 | A,,2 B,,2- B,,B,, E,2- | E,6 z2 |] %9
V:4
 z4 B,,2 z2 | z4 B,,2 z2 | x8 | x8 | x8 | x8 | x8 | x8 | x8 |] %9
V:5
 G,2 B,4 B,2 | B,2 B,4 B,2 | B,2 B,2 B,2 B,2 | E2 D2- DD D2 | E2 C2- CC[K:bass] B,2 | %5
 E,2 G,2- G,G, G,2 | A,2 B,2 C2 B,2 | F,2 F,2- F,A, G,2- | G,6 z2 |] %9
V:6
 E,2 E,2 z B, E,2 | =E,2 F,2 z B, F,2 | _G,2 =G,2 B,,2 E,2 | G,2 A,2- A,A, A,2 | %4
 G,2 A,2- A,A, E,2 | z2 D,2- D,D, C,2 | F,2 B,,2 A,,2 G,,2 | A,,2 B,,2- B,,B,, E,2- | E,6 z2 |] %9
V:7
 z4 B,,2 z2 | z4 B,,2 z2 | x8 | x8 | x8 | x8 | x8 | x8 | x8 |] %9

